src/apps/scalable/firefox-trunk.svg

<?xml version="1.0" encoding="UTF-8"?>
<svg width="64" height="64" version="1.1" viewBox="0 0 16.933 16.933" xmlns="http://www.w3.org/2000/svg" xmlns:cc="http://creativecommons.org/ns#" xmlns:dc="http://purl.org/dc/elements/1.1/" xmlns:rdf="http://www.w3.org/1999/02/22-rdf-syntax-ns#">
 <defs>
  <style type="text/css"/>
  <filter id="filter11290" x="-.024" y="-.024" width="1.048" height="1.048" color-interpolation-filters="sRGB">
   <feGaussianBlur stdDeviation="0.15875313"/>
  </filter>
  <linearGradient id="linearGradient1005" x1=".8714" x2="16.246" y1="16.164" y2=".78937" gradientTransform="matrix(3.7796 0 0 3.7796 -.13241 .025278)" gradientUnits="userSpaceOnUse">
   <stop stop-color="#00c8ff" offset="0"/>
   <stop stop-color="#14a0ff" offset="1"/>
  </linearGradient>
 </defs>
 <metadata>
  <rdf:RDF>
   <cc:Work rdf:about="">
    <dc:format>image/svg+xml</dc:format>
    <dc:type rdf:resource="http://purl.org/dc/dcmitype/StillImage"/>
    <dc:title/>
   </cc:Work>
  </rdf:RDF>
 </metadata>
 <g transform="scale(.26458)">
  <g transform="matrix(3.7796,0,0,3.7796,5.8415e-4,-1.7177e-4)" fill="#5e4aa6" stroke-width=".26458">
   <circle cx="-347.64" cy="-328.38" r="0"/>
   <circle cx="-56.726" cy="6.44" r="0" fill-rule="evenodd"/>
   <g transform="translate(-.0272 .0065001)">
    <circle cx="-330.35" cy="-328.38" r="0"/>
    <circle cx="-312.11" cy="-326.25" r="0"/>
    <circle cx="-306.02" cy="-333.07" r="0"/>
    <circle cx="-308.84" cy="-326.01" r="0"/>
   </g>
  </g>
  <circle transform="matrix(3.7796 0 0 3.7796 -.10279 .024585)" cx="8.4937" cy="8.46" r="7.9377" filter="url(#filter11290)" opacity=".25" stroke-width=".14032"/>
  <path d="m62 32c0 3.5964-0.63305 7.0448-1.794 10.24-0.80698 2.2212-1.8686 4.3212-3.1519 6.2636-0.53754 0.8167-1.1155 1.6054-1.729 2.3633-1.9641 2.4257-4.2982 4.5382-6.9186 6.2526-0.96493 0.63187-1.9678 1.2098-3.0061 1.7277-4.0321 2.0179-8.5839 3.153-13.401 3.153s-9.3689-1.1351-13.401-3.1531c-1.0384-0.518-2.0425-1.096-3.0074-1.7277-2.6535-1.7376-5.0155-3.8832-6.9957-6.349-0.61468-0.76408-1.1915-1.56-1.729-2.3841-1.249-1.9102-2.2837-3.9712-3.0747-6.1494-1.1608-3.1949-1.7927-6.6419-1.7927-10.237 0-16.569 13.432-30.001 30.001-30.001 8.317 0 15.843 3.3846 21.277 8.8507 1.5661 1.5747 2.9584 3.3234 4.1436 5.214 1.1205 1.7805 2.0572 3.6882 2.7857 5.6951 1.161 3.196 1.7941 6.6442 1.7941 10.24z" fill="url(#linearGradient1005)" stroke-width=".11719"/>
  <g transform="matrix(3.7796,0,0,3.7796,-338.15,-5.1847)" fill="#5e4aa6" stroke-width=".26458">
   <circle cx="-347.64" cy="-328.38" r="0"/>
   <circle cx="-56.726" cy="6.44" r="0" fill-rule="evenodd"/>
   <g transform="translate(-.0272 .0065001)">
    <circle cx="-330.35" cy="-328.38" r="0"/>
    <circle cx="-312.11" cy="-326.25" r="0"/>
    <circle cx="-306.02" cy="-333.07" r="0"/>
    <circle cx="-308.84" cy="-326.01" r="0"/>
   </g>
  </g>
  <g transform="translate(-338.15,-5.1845)" fill="#5e4aa6">
   <circle cx="-1380.5" cy="-1288.2" r="0"/>
   <g transform="matrix(3.7796,0,0,3.7796,-131.88,-47.113)" stroke-width=".26458">
    <circle cx="-299.02" cy="-338.77" r="0"/>
    <circle cx="-8.1062" cy="-3.9487" r="0" fill-rule="evenodd"/>
    <circle cx="-278.25" cy="-357.69" r="0"/>
    <circle cx="12.663" cy="-22.859" r="0" fill-rule="evenodd"/>
   </g>
   <g transform="matrix(3.7796,0,0,3.7796,-255.81,-8.9046)" stroke-width=".26458">
    <circle cx="-330.35" cy="-328.38" r="0"/>
    <circle cx="-312.11" cy="-326.25" r="0"/>
    <circle cx="-306.02" cy="-333.07" r="0"/>
    <circle cx="-308.84" cy="-326.01" r="0"/>
   </g>
  </g>
 </g>
 <circle cx="296.65" cy="5.7567" r="0" enable-background="new" fill="#d5d3cf" stroke-width=".87152"/>
 <g transform="matrix(.77092 0 0 .77092 1.9399 2.1193)" stroke-width=".18455">
  <path d="m15.093 5.809c-0.31078-0.74779-0.94116-1.5551-1.4349-1.8104a7.431 7.431 0 0 1 0.72435 2.1711l0.0013 0.012027c-0.80869-2.0162-2.1801-2.8291-3.3001-4.5993-0.05666-0.089506-0.11332-0.17919-0.16849-0.27387-0.03156-0.054034-0.05684-0.1028-0.0788-0.14764a1.3016 1.3016 0 0 1-0.10667-0.28328 0.018455 0.018455 0 0 0-0.01624-0.018476 0.025468 0.025468 0 0 0-0.01347 0c-9.59e-4 0-0.0024 0.001743-0.0035 0.001743-0.0011 3.6604e-4 -0.0035 0.001743-0.0051 0.002615l0.0028-0.005229c-1.7966 1.0519-2.4062 2.9993-2.4623 3.9734a3.5779 3.5779 0 0 0-1.9684 0.75868 2.1384 2.1384 0 0 0-0.18455-0.13989 3.316 3.316 0 0 1-0.020116-1.7483 5.2975 5.2975 0 0 0-1.7217 1.3306h-0.00332c-0.28355-0.35847-0.26362-1.5433-0.24738-1.7907a1.2785 1.2785 0 0 0-0.23881 0.12678 5.2089 5.2089 0 0 0-0.69907 0.59887 6.246 6.246 0 0 0-0.66862 0.80223v8.715e-4 -8.715e-4a6.0408 6.0408 0 0 0-0.95964 2.1671l-0.0096 0.047237c-0.013472 0.062924-0.062008 0.37814-0.070313 0.4466 0 0.00523-0.00111 0.010371-0.00166 0.015688a6.8167 6.8167 0 0 0-0.11608 0.98604v0.036865a7.1529 7.1529 0 0 0 14.201 1.2095c0.01199-0.092277 0.02178-0.18363 0.03248-0.27682a7.3556 7.3556 0 0 0-0.46395-3.5929zm-8.2438 5.5988c0.033403 0.01604 0.064777 0.03338 0.099101 0.04872l0.00499 0.0035q-0.052048-0.02494-0.10409-0.05187zm1.6385-4.314m5.8967-0.91057v-0.00697l0.0013 0.00784z" fill="#209af9"/>
  <path d="m11.618 6.6457c0.0155 0.010894 0.02989 0.021788 0.04447 0.032682a3.894 3.894 0 0 0-0.66438-0.86645c-2.2231-2.2234-0.58262-4.821-0.30598-4.953l0.0028-0.004358c-1.7966 1.0519-2.4062 2.9993-2.4622 3.9734 0.083416-0.0061 0.1661-0.012724 0.25136-0.012724a3.6098 3.6098 0 0 1 3.134 1.8302z" fill="#3bbfff"/>
  <path d="m8.4881 7.0901c-0.011811 0.1779-0.64039 0.79153-0.86019 0.79153-2.0339 0-2.3641 1.2304-2.3641 1.2304 0.090063 1.0361 0.81202 1.8894 1.6847 2.3408 0.039863 0.02065 0.080279 0.03931 0.1207 0.05761q0.10501 0.04654 0.21002 0.08602a3.1807 3.1807 0 0 0 0.9307 0.17957c3.565 0.1672 4.2555-4.2631 1.6829-5.5486a2.4693 2.4693 0 0 1 1.7246 0.41874 3.6098 3.6098 0 0 0-3.134-1.8302c-0.084893 0-0.16794 0.00697-0.25136 0.012724a3.5779 3.5779 0 0 0-1.9684 0.75868c0.10907 0.092268 0.23217 0.21555 0.49145 0.47115 0.48536 0.47816 1.7301 0.97349 1.7329 1.0316z" fill="#2a55c4"/>
  <path d="m5.9303 5.3471c0.057949 0.036865 0.10575 0.069025 0.14764 0.097994a3.316 3.316 0 0 1-0.020116-1.7483 5.2975 5.2975 0 0 0-1.7217 1.3306c0.03488-8.715e-4 1.0724-0.019522 1.5941 0.31964z" fill="#1d97f8"/>
  <path d="m1.3883 8.6327c0.55199 3.2617 3.5081 5.7521 6.8641 5.8471 3.1059 0.08784 5.0902-1.7152 5.91-3.4742a6.4777 6.4777 0 0 0 0.22257-4.8275v-0.00697c0-0.00523-0.0011-0.00872 0-0.00697l0.0013 0.012027c0.25375 1.6567-0.5889 3.2617-1.9062 4.3471l-0.0041 0.0092c-2.5667 2.0904-5.023 1.2612-5.5202 0.92277q-0.052031-0.024892-0.10407-0.051822c-1.4965-0.71531-2.1148-2.0788-1.9823-3.2481a1.8368 1.8368 0 0 1-1.6943-1.0658 2.6977 2.6977 0 0 1 2.6296-0.10557 3.5618 3.5618 0 0 0 2.6855 0.10557c-0.0027715-0.058131-1.2476-0.55364-1.7329-1.0316-0.25929-0.2556-0.38238-0.37869-0.49145-0.47115a2.1384 2.1384 0 0 0-0.18455-0.13989c-0.042447-0.028935-0.090246-0.06031-0.14764-0.097994-0.52172-0.3392-1.5592-0.32056-1.5936-0.31963h-0.00332c-0.28345-0.35907-0.26351-1.5439-0.24728-1.7913a1.2785 1.2785 0 0 0-0.23881 0.12678 5.2089 5.2089 0 0 0-0.69907 0.59886 6.246 6.246 0 0 0-0.67139 0.80039v8.715e-4 -8.715e-4a6.0408 6.0408 0 0 0-0.95964 2.1671c-0.00351 0.014554-0.25763 1.1256-0.13232 1.7017z" fill="#3bbfff"/>
  <path d="m10.998 5.8177a3.894 3.894 0 0 1 0.66438 0.86738c0.0393 0.029719 0.07603 0.059264 0.10722 0.087841 1.6216 1.4948 0.77197 3.6079 0.70867 3.7584 1.3173-1.0853 2.1592-2.6904 1.9062-4.3471-0.80906-2.0171-2.1805-2.83-3.3005-4.6003-0.05666-0.089506-0.11332-0.17919-0.16849-0.27387-0.03156-0.054034-0.05684-0.1028-0.0788-0.14764a1.3016 1.3016 0 0 1-0.10667-0.28328 0.018455 0.018455 0 0 0-0.01624-0.018476 0.025468 0.025468 0 0 0-0.01347 0c-9.59e-4 0-0.0024 0.001743-0.0035 0.001743-0.0011 3.6604e-4 -0.0035 0.001743-0.0051 0.002615-0.27664 0.13121-1.9171 2.7287 0.30635 4.9522z" fill="#097cf4"/>
  <path d="m11.768 6.7677c-0.03119-0.028586-0.06791-0.058131-0.10722-0.08785-0.01458-0.010894-0.02898-0.021788-0.04447-0.032682a2.4693 2.4693 0 0 0-1.7246-0.41874c2.5727 1.2863 1.8824 5.7158-1.6829 5.5486a3.1807 3.1807 0 0 1-0.9307-0.17955q-0.10501-0.039306-0.21002-0.08602c-0.040416-0.01848-0.080832-0.03687-0.1207-0.05761l0.00499 0.0035c0.49718 0.33938 2.9528 1.1685 5.5202-0.92277l0.0041-0.0092c0.06404-0.14948 0.91371-2.2631-0.70867-3.7574z" fill="#1d97f8"/>
  <path d="m5.2638 9.1121s0.33016-1.2304 2.3641-1.2304c0.2198 0 0.84893-0.61362 0.86019-0.79153a3.5618 3.5618 0 0 1-2.6855-0.10556 2.6977 2.6977 0 0 0-2.6296 0.10556 1.8368 1.8368 0 0 0 1.6943 1.0658c-0.13251 1.1695 0.48574 2.5329 1.9823 3.2481 0.033403 0.01604 0.064777 0.03338 0.099101 0.04872-0.87344-0.45122-1.5947-1.3046-1.6847-2.3407z" fill="#1d97f8"/>
 </g>
 <circle cx="-15.774" cy="13.461" r="0" enable-background="new" fill="#d5d3cf" stroke-width=".87152"/>
</svg>

<?xml version="1.0" encoding="UTF-8" standalone="no"?>
<svg
   xmlns:dc="http://purl.org/dc/elements/1.1/"
   xmlns:cc="http://creativecommons.org/ns#"
   xmlns:rdf="http://www.w3.org/1999/02/22-rdf-syntax-ns#"
   xmlns:svg="http://www.w3.org/2000/svg"
   xmlns="http://www.w3.org/2000/svg"
   xmlns:sodipodi="http://sodipodi.sourceforge.net/DTD/sodipodi-0.dtd"
   xmlns:inkscape="http://www.inkscape.org/namespaces/inkscape"
   inkscape:version="1.0 (4035a4fb49, 2020-05-01)"
   sodipodi:docname="firefox-trunk.svg"
   id="svg100"
   viewBox="0 0 16.933 16.933"
   version="1.1"
   height="64"
   width="64">
  <sodipodi:namedview
     inkscape:current-layer="svg100"
     inkscape:window-maximized="1"
     inkscape:window-y="0"
     inkscape:window-x="0"
     inkscape:cy="41.44264"
     inkscape:cx="21.456819"
     inkscape:zoom="6.4921875"
     showgrid="false"
     id="namedview102"
     inkscape:window-height="1000"
     inkscape:window-width="1920"
     inkscape:pageshadow="2"
     inkscape:pageopacity="0"
     guidetolerance="10"
     gridtolerance="10"
     objecttolerance="10"
     borderopacity="1"
     bordercolor="#666666"
     pagecolor="#ffffff" />
  <defs
     id="defs12">
    <style
       id="style2"
       type="text/css" />
    <filter
       color-interpolation-filters="sRGB"
       height="1.048"
       width="1.048"
       y="-.024"
       x="-.024"
       id="filter11290">
      <feGaussianBlur
         id="feGaussianBlur4"
         stdDeviation="0.15875313" />
    </filter>
    <linearGradient
       gradientUnits="userSpaceOnUse"
       gradientTransform="matrix(3.7796 0 0 3.7796 -.13241 .025278)"
       y2=".78937"
       y1="16.164"
       x2="16.246"
       x1=".8714"
       id="linearGradient1005">
      <stop
         id="stop7"
         offset="0"
         stop-color="#00c8ff" />
      <stop
         id="stop9"
         offset="1"
         stop-color="#14a0ff" />
    </linearGradient>
  </defs>
  <metadata
     id="metadata14">
    <rdf:RDF>
      <cc:Work
         rdf:about="">
        <dc:format>image/svg+xml</dc:format>
        <dc:type
           rdf:resource="http://purl.org/dc/dcmitype/StillImage" />
        <dc:title></dc:title>
      </cc:Work>
    </rdf:RDF>
  </metadata>
  <circle
     id="circle78"
     stroke-width=".87152"
     fill="#d5d3cf"
     enable-background="new"
     r="0"
     cy="5.7567"
     cx="296.65" />
  <g
     id="g96"
     stroke-width="0.18455"
     transform="matrix(0.98606679,0,0,0.98606679,0.11847385,0.34793449)">
    <path
       id="path80"
       fill="#209af9"
       d="M 15.093,5.809 C 14.78222,5.06121 14.15184,4.2539 13.6581,3.9986 a 7.431,7.431 0 0 1 0.72435,2.1711 l 0.0013,0.012027 c -0.80869,-2.0162 -2.1801,-2.8291 -3.3001,-4.5993 -0.05666,-0.089506 -0.11332,-0.17919 -0.16849,-0.27387 -0.03156,-0.054034 -0.05684,-0.1028 -0.0788,-0.14764 a 1.3016,1.3016 0 0 1 -0.10667,-0.28328 0.018455,0.018455 0 0 0 -0.01624,-0.018476 0.025468,0.025468 0 0 0 -0.01347,0 c -9.59e-4,0 -0.0024,0.001743 -0.0035,0.001743 -0.0011,3.6604e-4 -0.0035,0.001743 -0.0051,0.002615 l 0.0028,-0.005229 c -1.7966,1.0519 -2.4062,2.9993 -2.4623,3.9734 A 3.5779,3.5779 0 0 0 6.26348,5.59037 2.1384,2.1384 0 0 0 6.07893,5.45048 3.316,3.316 0 0 1 6.058814,3.70218 5.2975,5.2975 0 0 0 4.337114,5.03278 H 4.333794 C 4.050244,4.67431 4.070174,3.48948 4.086414,3.24208 A 1.2785,1.2785 0 0 0 3.847604,3.36886 5.2089,5.2089 0 0 0 3.148534,3.96773 6.246,6.246 0 0 0 2.479914,4.76996 V 4.7708315 4.76996 a 6.0408,6.0408 0 0 0 -0.95964,2.1671 l -0.0096,0.047237 c -0.013472,0.062924 -0.062008,0.37814 -0.070313,0.4466 0,0.00523 -0.00111,0.010371 -0.00166,0.015688 a 6.8167,6.8167 0 0 0 -0.11608,0.98604 V 8.46949 a 7.1529,7.1529 0 0 0 14.201,1.2095 c 0.01199,-0.092277 0.02178,-0.18363 0.03248,-0.27682 a 7.3556,7.3556 0 0 0 -0.46395,-3.5929 z m -8.2438,5.5988 c 0.033403,0.01604 0.064777,0.03338 0.099101,0.04872 l 0.00499,0.0035 Q 6.901243,11.43508 6.849201,11.40815 Z M 8.4877,7.0938 M 14.3844,6.18323 V 6.17626 l 0.0013,0.00784 z" />
    <path
       id="path82"
       fill="#3bbfff"
       d="m 11.618,6.6457 c 0.0155,0.010894 0.02989,0.021788 0.04447,0.032682 a 3.894,3.894 0 0 0 -0.66438,-0.86645 c -2.2231,-2.2234 -0.58262,-4.821 -0.30598,-4.953 l 0.0028,-0.004358 c -1.7966,1.0519 -2.4062,2.9993 -2.4622,3.9734 0.083416,-0.0061 0.1661,-0.012724 0.25136,-0.012724 a 3.6098,3.6098 0 0 1 3.134,1.8302 z" />
    <path
       id="path84"
       fill="#2a55c4"
       d="M 8.4881,7.0901 C 8.476289,7.268 7.84771,7.88163 7.62791,7.88163 c -2.0339,0 -2.3641,1.2304 -2.3641,1.2304 0.090063,1.0361 0.81202,1.8894 1.6847,2.3408 0.039863,0.02065 0.080279,0.03931 0.1207,0.05761 q 0.10501,0.04654 0.21002,0.08602 a 3.1807,3.1807 0 0 0 0.9307,0.17957 c 3.565,0.1672 4.2555,-4.2631 1.6829,-5.5486 a 2.4693,2.4693 0 0 1 1.7246,0.41874 3.6098,3.6098 0 0 0 -3.134,-1.8302 c -0.084893,0 -0.16794,0.00697 -0.25136,0.012724 a 3.5779,3.5779 0 0 0 -1.9684,0.75868 c 0.10907,0.092268 0.23217,0.21555 0.49145,0.47115 0.48536,0.47816 1.7301,0.97349 1.7329,1.0316 z" />
    <path
       id="path86"
       fill="#1d97f8"
       d="m 5.9303,5.3471 c 0.057949,0.036865 0.10575,0.069025 0.14764,0.097994 a 3.316,3.316 0 0 1 -0.020116,-1.7483 5.2975,5.2975 0 0 0 -1.7217,1.3306 c 0.03488,-8.715e-4 1.0724,-0.019522 1.5941,0.31964 z" />
    <path
       id="path88"
       fill="#3bbfff"
       d="m 1.3883,8.6327 c 0.55199,3.2617 3.5081,5.7521 6.8641,5.8471 3.1059,0.08784 5.0902,-1.7152 5.91,-3.4742 A 6.4777,6.4777 0 0 0 14.38497,6.1781 V 6.17113 c 0,-0.00523 -0.0011,-0.00872 0,-0.00697 l 0.0013,0.012027 c 0.25375,1.6567 -0.5889,3.2617 -1.9062,4.3471 l -0.0041,0.0092 c -2.5667,2.0904 -5.023,1.2612 -5.5202,0.92277 Q 6.903739,11.430365 6.8517,11.403435 c -1.4965,-0.71531 -2.1148,-2.0788 -1.9823,-3.2481 a 1.8368,1.8368 0 0 1 -1.6943,-1.0658 2.6977,2.6977 0 0 1 2.6296,-0.10557 3.5618,3.5618 0 0 0 2.6855,0.10557 C 8.4874285,7.031404 7.2426,6.535895 6.7573,6.057935 6.49801,5.802335 6.37492,5.679245 6.26585,5.586785 A 2.1384,2.1384 0 0 0 6.0813,5.446895 C 6.038853,5.41796 5.991054,5.386585 5.93366,5.348901 5.41194,5.009701 4.37446,5.028341 4.34006,5.029271 H 4.33674 C 4.05329,4.670201 4.07323,3.485371 4.08946,3.237971 a 1.2785,1.2785 0 0 0 -0.23881,0.12678 5.2089,5.2089 0 0 0 -0.69907,0.59886 6.246,6.246 0 0 0 -0.67139,0.80039 v 8.715e-4 -8.715e-4 a 6.0408,6.0408 0 0 0 -0.95964,2.1671 c -0.00351,0.014554 -0.25763,1.1256 -0.13232,1.7017 z" />
    <path
       id="path90"
       fill="#097cf4"
       d="m 10.998,5.8177 a 3.894,3.894 0 0 1 0.66438,0.86738 c 0.0393,0.029719 0.07603,0.059264 0.10722,0.087841 1.6216,1.4948 0.77197,3.6079 0.70867,3.7584 1.3173,-1.0853 2.1592,-2.6904 1.9062,-4.3471 -0.80906,-2.0171 -2.1805,-2.83 -3.3005,-4.6003 -0.05666,-0.089506 -0.11332,-0.17919 -0.16849,-0.27387 -0.03156,-0.054034 -0.05684,-0.1028 -0.0788,-0.14764 a 1.3016,1.3016 0 0 1 -0.10667,-0.28328 0.018455,0.018455 0 0 0 -0.01624,-0.018476 0.025468,0.025468 0 0 0 -0.01347,0 c -9.59e-4,0 -0.0024,0.001743 -0.0035,0.001743 -0.0011,3.6604e-4 -0.0035,0.001743 -0.0051,0.002615 -0.27664,0.13121 -1.9171,2.7287 0.30635,4.9522 z" />
    <path
       id="path92"
       fill="#1d97f8"
       d="M 11.768,6.7677 C 11.73681,6.739114 11.70009,6.709569 11.66078,6.67985 11.6462,6.668956 11.6318,6.658062 11.61631,6.647168 a 2.4693,2.4693 0 0 0 -1.7246,-0.41874 c 2.5727,1.2863 1.8824,5.7158 -1.6829,5.5486 a 3.1807,3.1807 0 0 1 -0.9307,-0.17955 Q 7.1731,11.558172 7.06809,11.511458 c -0.040416,-0.01848 -0.080832,-0.03687 -0.1207,-0.05761 l 0.00499,0.0035 c 0.49718,0.33938 2.9528,1.1685 5.5202,-0.92277 l 0.0041,-0.0092 c 0.06404,-0.14948 0.91371,-2.2631 -0.70867,-3.7574 z" />
    <path
       id="path94"
       fill="#1d97f8"
       d="m 5.2638,9.1121 c 0,0 0.33016,-1.2304 2.3641,-1.2304 0.2198,0 0.84893,-0.61362 0.86019,-0.79153 a 3.5618,3.5618 0 0 1 -2.6855,-0.10556 2.6977,2.6977 0 0 0 -2.6296,0.10556 1.8368,1.8368 0 0 0 1.6943,1.0658 c -0.13251,1.1695 0.48574,2.5329 1.9823,3.2481 0.033403,0.01604 0.064777,0.03338 0.099101,0.04872 -0.87344,-0.45122 -1.5947,-1.3046 -1.6847,-2.3407 z" />
  </g>
  <circle
     id="circle98"
     stroke-width=".87152"
     fill="#d5d3cf"
     enable-background="new"
     r="0"
     cy="13.461"
     cx="-15.774" />
</svg>
